X: 37629
T: Snow Day
R: slide
M: 12/8
K: Dmajor
A|"D" d2e "F#m" f2e "G" dcB "G" AGF|"D" d2e "F#m" f2e "G" dcd "G" gfe|
"D" d2e "F#m" f2e "D" dBA "D" d2d|"G" edB "D" A2 F "D" E2D "D" D2 A||
"D" d2e "F#m" f2e "G" dcB "G" AGF|"D" d2e "F#m" f2e "G" dcd "G" ABc|
"D" d2e "F#m" f2e "D" dBA "D" d2d"G" edB "D" A2 F "D" E2D "D" D2 G||
K:G
|:"Bm" A2B "C" =c2d "C" e2f "G" g2a|"C" gfg "G" d2B "Bm" ABA "G" GED|
"Bm" A2B "C" =c2d "C" efg "G" a2g|1 "C" ede "C" g2e "G" B2A "G" A2 G:|2 "C" ede "C" g2e "G" B2A "G" A2 e||

